X:502
T:Off She Goes
M:6/8
L:1/8
K:D
A|:"D"F2 A "G"G2 B|"A"ABc "D"d2 A|F2 A "G"GAB|"D"AFD "A"E2 D|"D"F2 A "G"G2 B|
"A"ABc "D"d2 e|f2 d "G"gfe|1 "A"cAc "D"d2 A:|2 "A"cAc "D"d2 e|:"D"faf def|\
"G"gbg efg|
"D"faf def|"A"ecA A2 g|"D"faf def|"G"gbg efg|\
"D"f2 d "G"gfe|1 "A"cAc "D"d2 e:|2 "A"cAc "D"d2|]
